assets/Military helmet/Flat/military_helmet_flat.svg

<svg width="32" height="32" viewBox="0 0 32 32" fill="none" xmlns="http://www.w3.org/2000/svg">
<path d="M19.17 30H15.56C15.23 30 14.93 29.78 14.84 29.46L11 16H16L19.77 29.2C19.89 29.6 19.59 30 19.17 30Z" fill="#7D4533"/>
<path d="M30 12.46C29.98 11.64 29.28 11 28.46 11H28.43C27.89 11 27.4 10.66 27.21 10.15C25.45 5.39 20.87 2 15.5 2C8.65 2 3 7.67 3 14.5C3 14.5 3 15.74 3 17.06C3 18.39 2.67 19.7 2.13 20.92C2.04 21.1 2 21.3 2 21.52C2.01 22.34 2.68 23 3.5 23C6.37 23 7.65 22.4 10.26 21.23L22.96 15.51C25.19 14.51 26.05 14 28.49 14C29.34 14 30.02 13.31 30 12.46Z" fill="#008463"/>
<path d="M9.02999 18.49L21.73 12.77C24.02 11.74 24.99 11.02 28.27 11.02C28.27 11.01 28.26 10.99 28.26 10.98C27.79 10.92 27.38 10.6 27.21 10.14C25.45 5.39 20.87 2 15.5 2C8.64999 2 2.99999 7.67 2.99999 14.5C2.99999 14.5 2.99999 15.74 2.99999 17.06C2.99999 18.06 2.80999 19.04 2.48999 19.98C5.93999 19.93 7.13999 19.34 9.02999 18.49Z" fill="#44911B"/>
<path d="M18.2363 23.9L18.8363 26H14L13.26 23.9H18.2363ZM18.26 22.9H13.26C12.94 22.9 12.63 23.06 12.44 23.32C12.25 23.58 12.21 23.92 12.31 24.23L13.05 26.33C13.2 26.73 13.58 27 14 27H18.86C19.17 27 19.47 26.85 19.66 26.6C19.85 26.35 19.91 26.02 19.82 25.72L19.22 23.62C19.1 23.2 18.7 22.9 18.26 22.9Z" fill="#9B9B9B"/>
<path d="M12.8641 22.558C12.6235 21.686 12.8241 21.2048 14.0569 20.6636C14.9425 20.2748 16.1452 19.7816 16.788 19.5181C16.8611 19.4881 16.927 19.4611 16.9844 19.4375L16.668 18.3359L12.2327 20.3428L12.8641 22.558ZM17.8706 24.639L17.8706 24.639C17.7836 24.3379 17.6566 23.8981 16.7915 23.8981H18.2361L18.845 25.9966H17.2276C18.3078 25.9966 17.9966 25.035 17.8991 24.7336L17.897 24.7271C17.8881 24.6996 17.8796 24.67 17.8706 24.639ZM14.4242 23.9014C13.9883 23.9014 13.9882 24.3323 14.1454 24.8088C14.4518 25.7374 15.0173 25.9951 15.3113 26.0052H14.0034L13.2532 23.9014H14.4242Z" fill="#5C2614"/>
</svg>

<svg xmlns="http://www.w3.org/2000/svg" width="32" height="32" fill="none"><path fill="#7D4533" d="M19.17 30h-3.61a.75.75 0 0 1-.72-.54L11 16h5l3.77 13.2c.12.4-.18.8-.6.8Z"/><path fill="#008463" d="M30 12.46c-.02-.82-.72-1.46-1.54-1.46h-.03c-.54 0-1.03-.34-1.22-.85C25.45 5.39 20.87 2 15.5 2 8.65 2 3 7.67 3 14.5v2.56c0 1.33-.33 2.64-.87 3.86-.09.18-.13.38-.13.6A1.5 1.5 0 0 0 3.5 23c2.87 0 4.15-.6 6.76-1.77l12.7-5.72c2.23-1 3.09-1.51 5.53-1.51.85 0 1.53-.69 1.51-1.54Z"/><path fill="#44911B" d="m9.03 18.49 12.7-5.72c2.29-1.03 3.26-1.75 6.54-1.75 0-.01-.01-.03-.01-.04a1.3 1.3 0 0 1-1.05-.84C25.45 5.39 20.87 2 15.5 2 8.65 2 3 7.67 3 14.5v2.56c0 1-.19 1.98-.51 2.92 3.45-.05 4.65-.64 6.54-1.49Z"/><path fill="#9B9B9B" d="m18.236 23.9.6 2.1H14l-.74-2.1h4.976Zm.024-1h-5c-.32 0-.63.16-.82.42-.19.26-.23.6-.13.91l.74 2.1c.15.4.53.67.95.67h4.86c.31 0 .61-.15.8-.4a.99.99 0 0 0 .16-.88l-.6-2.1c-.12-.42-.52-.72-.96-.72Z"/><path fill="#5C2614" d="M12.864 22.558c-.24-.872-.04-1.353 1.193-1.894.886-.39 2.088-.882 2.731-1.146l.196-.08-.316-1.102-4.435 2.007.631 2.215Zm5.007 2.081c-.087-.301-.214-.74-1.08-.74h1.445l.609 2.098h-1.617c1.08 0 .769-.962.671-1.263l-.002-.007-.026-.088Zm-3.447-.738c-.436 0-.436.431-.279.908.307.928.872 1.186 1.166 1.196h-1.308l-.75-2.104h1.171Z"/></svg>
